X: 3203
T: FIRTH O FORTH
Q: "Highland Schottische."
R: Schottische.
%R: shottish
B: James Kerr "Merry Melodies" v.3 p.24 #203
Z: 2016 John Chambers <jc:trillian.mit.edu>
M: C
L: 1/8
K: D
|:\
A>Bd>e f>ed>A | (B<e) e>f g>f e2 |\
A>Bd>e f>ed>A | (B<d) A>G (F<D) D2 ::\
a>fd>e f>ed>A | (B<e) e>f g>f e2 |\
a>fd>e f>ed>A | (B<d) A>G (F<D) D2 :|

%%sep 1 1 500
%%sep 1 1 500

